X:2
T:The Golden Wedding
T:aka: The Farmer's Reel
C:traditional
N:attributed to Don Messer (not verified) 
R:reel
D:Snug in the Blanket,P.O'Brien,J.Gans,D.Sproule
O:Canadian
Z:Paul Stewart Cranford (P.S.C.), <http://www.cranfordpub.com>
L:1/8
M:C|
Q:333
K:G
c|d2 Bd GdBd|gedB GBAB|c2 Ac =FcAB|cdcA =FAce|
d2 Bd GdBd|gedB GBef|gfge dBge|dBAc BGG:|
|:d|eggf gecg|eccg efge|faab afda|afdf fedf|
eggf gecg|eccg efge|af (3(gfe) dBge|dBAc BGG:|
